icon-themes/breeze_svg/cmd/sc_subscript.svg

<svg viewBox="0 0 16 16" xmlns="http://www.w3.org/2000/svg"><path d="m6.3828125 2-4.3828125 11h1.3574219l1.1894531-3h4.453125.4746094.5253906v-1-1.171875l-2.2519531-5.828125zm.6796875 1.328125c.11316.37608.711475 2.0819644 1.796875 5.1152344l.2246094.5566406h-4.1425782z" fill="#4d4d4d"/><path d="m11 9v5h1 1.5c.82843 0 1.5-.67157 1.5-1.5 0-.5333-.26819-1.01527-.6875-1.28125.11546-.21254.1875-.45987.1875-.71875 0-.82843-.67156-1.5-1.5-1.5h-1zm1 1h1c.27614 0 .5.22386.5.5s-.22386.5-.5.5h-1zm0 2h1 .5c.27615 0 .5.22386.5.5s-.22385.5-.5.5h-1.5z" fill="#1d99f3"/></svg>

<svg xmlns="http://www.w3.org/2000/svg" viewBox="0 0 16 16">
 <path 
     style="fill:#4d4d4d" 
     d="M 6.3828125 2 L 2 13 L 3.3574219 13 L 4.546875 10 L 9 10 L 9.4746094 10 L 10 10 L 10 9 L 10 7.828125 L 7.7480469 2 L 6.3828125 2 z M 7.0625 3.328125 C 7.17566 3.704205 7.773975 5.4100894 8.859375 8.4433594 L 9.0839844 9 L 4.9414062 9 L 7.0625 3.328125 z "
     />
 <path 
     style="fill:#1d99f3" 
     d="M 11 9 L 11 14 L 12 14 L 13.5 14 C 14.32843 14 15 13.32843 15 12.5 C 15 11.9667 14.73181 11.48473 14.3125 11.21875 C 14.42796 11.00621 14.5 10.75888 14.5 10.5 C 14.5 9.67157 13.82844 9 13 9 L 12 9 L 11 9 z M 12 10 L 13 10 C 13.27614 10 13.5 10.22386 13.5 10.5 C 13.5 10.77614 13.27614 11 13 11 L 12 11 L 12 10 z M 12 12 L 13 12 L 13.5 12 C 13.77615 12 14 12.22386 14 12.5 C 14 12.77614 13.77615 13 13.5 13 L 12 13 L 12 12 z "
     />
 </svg>
